22x22/actions/draw-polygon-star.svg

<svg xmlns="http://www.w3.org/2000/svg" viewBox="0 0 22 22">
  <defs id="defs3051">
    <style type="text/css" id="current-color-scheme">
      .ColorScheme-Text {
        color:#5d656b;
      }
      </style>
  </defs>
 <path 
    style="fill:currentColor;fill-opacity:1;stroke:none" 
	d="M 10,4 3,11.15625 6.875,18 10,18 9.6875,20 14,17.59375 18.3125,20 17.5,14.9375 21,11.34375 16.15625,10.59375 14,6 13.34375,7.40625 10,4 Z m 0,1.25 2.9375,3 -1.09375,2.34375 L 7,11.34375 10.5,14.9375 10.15625,17.125 7.375,17.125 4.0625,11.3125 10,5.25 Z m 4,2.5 1.625,3.46875 L 19.25,11.75 16.625,14.4375 17.25,18.25 14,16.46875 10.75,18.25 11.375,14.4375 8.75,11.75 12.375,11.21875 14,7.75 Z" transform="translate(-1-1)"
    class="ColorScheme-Text"
    />  
</svg>

<svg xmlns="http://www.w3.org/2000/svg" viewBox="0 0 22 22"><path style="fill:currentColor;fill-opacity:1;stroke:none;color:#5d656b" d="m10 4-7 7.156L6.875 18H10l-.313 2L14 17.594 18.313 20l-.813-5.063 3.5-3.593-4.844-.75L14 6l-.656 1.406L10 4zm0 1.25 2.938 3-1.094 2.344-4.844.75 3.5 3.594-.344 2.187H7.375l-3.313-5.813L10 5.25zm4 2.5 1.625 3.469 3.625.531-2.625 2.688.625 3.812L14 16.469l-3.25 1.781.625-3.813L8.75 11.75l3.625-.531L14 7.75z" transform="translate(-1 -1)"/></svg>
